!!!!SEGMENT: pl-wtm--iii-41-637-1--001-003_joteyko-tadeusz--sonatine-c-dur-op-18-no-1-iii-rondo-alla-cracoviana.krn
!!!cenid: 19xx:105
!!!COM: Joteyko, Tadeusz
!!!COM-rismID: pe50046072
!!!CDT: 1872-1932
!!!CNT: Polish
!!!OPR: Sonatine C-dur Op. 18 No. 1
!!!OTL: III. Rondo alla Cracoviana
!!!OMV: 003
!!!PDT:
!!!AGN: Secular; Sonata
!!!YEC: Copyright 2022 Narodowy Instytut Fryderyka Chopina (https://polishscores.org)
!!!YEM: License CC-BY-4.0 (https://creativecommons.org/licenses/by/4.0)
!!!SMS-siglum: PL-Wtm
!!!SMS-shelfmark: III.41.637-1
!!!SMS-variant:
!!!SMS-altvar:
!!!SMS-shelfwork: 001-003 M
!!!NIFC-rismSourceID: 1001141217
!!!NIFC-rismChildID: 1001141217
!!!NIFC-islandoraID: pl-wtm:20249
!!!URL-pdf-islandora: https://repozytorium.nifc.pl/islandora/object/pl-wtm%3A20249/datastream/PDF/view
!!!URL-scan: https://polish.musicsources.pl/pl/lokalizacje/galeria/druki-muzyczne/17521/5 @EN{Scan on Polish Music Sources Website} @PL{Skany w portalu Dziedzictwo Muzyki Polskiej w otwartym dostępie}
!!!IIIF:
!!!ONB-nifc: UWAGA: części Sonatiny: I. Allegro assai, II. Chanson polonaise, III. Rondo alla Cracoviana
!!!AIN: 1 piano
!!!key: C
**kern	**fing	**kern	**fing	**dynam
*part1	*	*part1	*	*part1
*staff2	*	*staff1	*	*
*I"Piano	*	*I"Piano	*	*
*I'P-no	*	*I'P-no	*	*
*ICklav	*	*ICklav	*	*
*Ipiano	*	*Ipiano	*	*
*clefF4	*	*clefG2	*	*
*k[]	*	*k[]	*	*
*C:	*	*C:	*	*
*M2/4	*	*M2/4	*	*
=1	=1	=1	=1	=1
*	*below	*	*	*
!	!	!LO:TX:a:t=Allegro non troppo.	!	!
4C\ 4G	5 1	8e\ 8cc	3	p
.	.	(4ee^\	5	.
4C\ 4G	.	.	.	.
.	.	8cc\	3	.
=2	=2	=2	=2	=2
4C/ 4F 4G	.	16b\LL	2	.
.	.	16cc\	3	.
.	.	16dd\	4	.
.	.	16b\JJ	2	.
4C/ 4F 4G	.	4g/)	1	.
=3	=3	=3	=3	=3
4C\ 4E 4G	.	8ee\	2	.
.	.	4gg^\	4	.
4C\ 4E 4G	.	.	.	.
.	.	8gg\	3	.
=4	=4	=4	=4	=4
4C\ 4F#X 4A	.	16ff#X\LL	.	.
.	.	16gg\	.	.
.	.	16aa\	.	.
.	.	16ff#\JJ	.	.
4C\ 4E 4G	.	4gg\	.	.
=5	=5	=5	=5	=5
(8Fn\L	5	(8aa\	5	.
8G\	.	4ffn^\	.	.
8A\	.	.	.	.
8B\J	.	8aa\	.	.
=6	=6	=6	=6	=6
8c\L	1	16gg\LL	4	.
.	.	16ee\	2	.
8d\	3	16ff\	3	.
.	.	16dd\JJ	2	.
8e\	.	4cc\)	1	.
8f\J	.	.	.	.
!!LO:LB:g=original
=7	=7	=7	=7	=7
4f#X\	2	(8dd\	5	.
.	.	4a^>/	2	.
4d\	4	.	.	.
.	.	8cc\	4	.
=8	=8	=8	=8	=8
8g\L)	1	16b\LL	3	.
.	.	16cc\	.	.
(8G\	4	16dd\	5	<
.	.	16b\JJ	.	.
8A\	.	4g/)	.	.
8B\J	.	.	.	[
=9	=9	=9	=9	=9
8c\L	1	(8e/ 8cc	.	mf
8B\	.	4ee^\	.	.
8A\	.	.	.	.
8A-X\J	4	8cc\	.	.
=10	=10	=10	=10	=10
8G\L	1	16b\LL	.	.
.	.	16cc\	.	.
8F\	.	16dd\	.	.
.	.	16b\JJ	.	.
8E\	.	4g/)	.	.
8D\J	4	.	.	.
=11	=11	=11	=11	=11
8C\L	5	(8ee\	2	.
8E\	4	4gg^\)	4	.
8G\	2	.	.	.
8c\J	1	(8gg\	3	.
=12	=12	=12	=12	=12
8d\L)	2	16ff#X\LL	.	.
.	.	16gg\	.	.
(8D\	5	16aa\	.	.
.	.	16ff#\JJ	.	.
8G\	4	4gg\)	.	.
8B\J)	2	.	.	.
!!LO:LB:g=original
=13	=13	=13	=13	=13
(8F\L	5	(8aa\	5	.
8A\	.	4ffn^\	.	.
8c\	.	.	.	.
8f\J	.	8aa\	.	.
=14	=14	=14	=14	=14
8e\L	2	16gg\LL	4	.
.	.	16ee\	2	.
8d\	.	16ff\	3	.
.	.	16dd\JJ	2	.
8e\	.	4cc\)	1	.
8c\J)	.	.	.	.
=15	=15	=15	=15	=15
(4f\	1	(8dd\	4	.
.	.	4a^/	.	.
4d\	3	.	.	.
.	.	8cc\	3	.
=16	=16	=16	=16	=16
8g\L	1	16b\LL	2	.
.	.	16cc\	.	.
8f\	.	16dd\	.	.
.	.	16b\JJ	.	.
8e\	.	4cc\)	.	.
8c\J)	5	.	.	.
=17	=17	=17	=17	=17
(4B\	1	(16g\LL	1	f
.	.	16a\	.	.
.	.	16b\	3	.
.	.	16cc\JJ	1	.
8A\L	.	16dd\LL	2	.
.	.	16ee\	.	.
8G\J	.	16ff\	4	.
.	.	16gg\JJ	5	.
=18	=18	=18	=18	=18
8A\L	2	16cc\LL	1	.
.	.	16dd\	.	.
8G\	.	16ee\	.	.
.	.	16ff\JJ	1	.
8F\	4	16gg\LL	.	.
.	.	16aa\	.	.
8E\J	5	16bb\	4	.
.	.	16ccc\JJ)	5	.
!!LO:LB:g=original
=19	=19	=19	=19	=19
8F\L	4	(16aa\LL	3	.
.	.	16ccc\	5	.
8c\	.	16aa\	4	.
.	.	16ff\JJ	2	.
8E\	4	8gg\L	3	.
8G\J	.	8cc\J)	1	.
=20	=20	=20	=20	=20
8D\L	5	(16ff\LL	3	.
.	.	16aa\	5	.
8B\	.	16ff\	4	.
.	.	16dd\JJ	2	.
8C\	.	8ee\L	3	.
8c\J)	.	8cc\J)	.	.
=21	=21	=21	=21	=21
(8F\L	5	(16a\LL	1	.
.	.	16b\	.	.
8d\	.	16cc\	3	.
.	.	16dd\JJ	1	.
8c\	.	16ee\LL	.	.
.	.	16ff\	.	.
8B\J	.	16gg\	4	.
.	.	16aa\JJ	5	.
=22	=22	=22	=22	=22
8F#X\L	5	16cc\LL	1	.
.	.	16dd\	.	.
8c\	2	16ee\	.	.
.	.	16ff#X\JJ	4	.
8B\	3	16gg\LL	1	.
.	.	16aa\	.	.
8A\J	4	16bb\	.	.
.	.	16ccc\JJ)	4	.
=23	=23	=23	=23	=23
8G\L	5	(16bb\LL	3	.
.	.	16ddd\	5	.
8d\	.	16bb\	4	.
.	.	16gg\JJ	2	.
8c\	3	8aa\L	3	.
8c#X\J	2	8ee\J)	1	.
!!LO:LB:g=original
=24	=24	=24	=24	=24
8d\L	1	(16ff#X\LL	2	.
.	.	16aa\	4	.
8D\	5	16gg\	.	.
.	.	16ff#\JJ	.	.
8G\	1	4gg\)	.	.
8GG\J)	.	.	.	.
=25	=25	=25	=25	=25
4C\ 4G	1 5	8e/ 8cc	3	f
.	.	(4ee^\	5	.
4C\ 4G	.	.	.	.
.	.	8cc\	.	.
=26	=26	=26	=26	=26
4C\ 4F 4G	.	16b\LL	2	.
.	.	16cc\	3	.
.	.	16dd\	4	.
.	.	16b\JJ	2	.
4C\ 4F 4G	.	4g/)	1	.
=27	=27	=27	=27	=27
4C\ 4E 4G	.	8ee\	2	.
.	.	4gg^\	4	.
4C\ 4E 4G	.	.	.	.
.	.	(8gg\	3	.
=28	=28	=28	=28	=28
4C\ 4F#X 4A	.	16ff#X\LL	.	.
.	.	16gg\	.	.
.	.	16aa\	.	.
.	.	16ff#\JJ	.	.
4C\ 4E 4G	.	4gg\)	.	.
=29	=29	=29	=29	=29
(8Fn\L	5	(8aa\	5	.
8G\	.	4ffn^\	.	.
8A\	.	.	.	.
8B\J	.	8aa\	.	.
!!LO:PB:g=original
=30	=30	=30	=30	=30
8c\L	1	16gg\LL	4	.
.	.	16ee\	2	.
8d\	3	16ff\	3	.
.	.	16dd\JJ	2	.
8e\	2	4cc\)	1	.
8c\J)	4	.	.	.
=31	=31	=31	=31	=31
(4f\	.	(8dd\	5	.
.	.	4a^>/	2	.
4d\	.	.	.	.
.	.	8cc\	4	.
=32	=32	=32	=32	=32
8g\L	1	16b\LL	3	.
.	.	16cc\	4	.
8G\J	.	16dd\	5	.
.	.	16b\JJ	3	.
4c\) 4e	1 2	4cc\)	4	.
=33	=33	=33	=33	=33
(8D\L	5	8r	.	p
8F#X\	3	8cc\L 8ee	3 5	.
8A\	.	8cc^\ 8ee	.	.
8d\J	1	8a\J 8cc	1 3	.
=34	=34	=34	=34	=34
8d#X\L	2	8g\ 8b	2 4	.
8e\	1	4g^\ 4b	1 4	.
8dn\	2	.	.	.
8c\J	3	8g/ 8a	1 3	.
=35	=35	=35	=35	=35
8d\L	1	8f#X\L 8a	2 3	.
8D\	.	16b\L	4	.
.	.	16cc\JJ	5	.
8F#X\	3	8b\L	4	.
8c\J	1	8a\J	3	.
!!LO:LB:g=original
=36	=36	=36	=36	=36
8B\L	2	(16g\LL	1	.
.	.	16b\JJ	2	.
8G\	.	4dd^\)	4	.
8d\	.	.	.	.
8B\J)	.	8r	.	.
=37	=37	=37	=37	=37
(8F#X\L	5	8r	.	.
8A#X\	3	8ee\L 8gg	3 5	.
8c#X\	.	8ee^\ 8gg	.	.
8f#X\J	1	8cc#X\J 8ee	.	.
=38	=38	=38	=38	=38
8e#X\L	3	8b\ 8dd	.	.
8f#X\	2	4b^\ 4dd	1 4	.
8g\	1	.	.	.
!LO:TX:t=P:problem=krzyżyk w nawiasie	!	!	!	!
8e#X\J	2	8b\ 8cc#X	1 3	.
=39	=39	=39	=39	=39
8f#X\L	1	(8a#X^\L 8cc#X	2 3	.
8F#X\	5	16dd\L	4	.
.	.	16ee\JJ	5	.
8A#X\	3	8dd\L	.	.
8en\J	1	8cc#\J	.	.
=40	=40	=40	=40	=40
8d\L	2	16b\LL	1	.
.	.	16dd\JJ	2	.
8B\	.	4ff#X^\)	4	.
8f#X\	.	.	.	.
8d\J)	.	8r	.	.
=41	=41	=41	=41	=41
(8cn\L	1	(8.aa\L	4	mf
8E\	.	.	.	.
.	.	16gg\K	.	.
8A\	2	8ff#X\	.	.
8C\J	5	8ee\J)	.	.
!!LO:LB:g=original
=42	=42	=42	=42	=42
8D\L	4	(8ee\	3	.
8G\	2	4dd^\	2	.
8B\	1	.	.	.
8d\J)	2	8b\)	.	.
=43	=43	=43	=43	=43
(8D\L	5	(8.dd^\L	4	.
8F#X\	3	.	.	.
.	.	16cc\K	.	.
8A\	.	8b\	.	.
8d\J	.	8a\J	.	.
=44	=44	=44	=44	=44
8G\L	4	16b\LL	2	.
.	.	16cc\JJ	.	.
8B\	.	4dd^\)	4	.
8d\J)	.	.	.	.
8r	.	(8ff#X\	2	.
=45	=45	=45	=45	=45
(8C\L	5	8.aa^\L	4	.
8A\	.	.	.	.
.	.	16gg\K	3	.
8C#X\	.	8ff#X\	.	.
8A#X\J	2	8ee\J)	.	.
=46	=46	=46	=46	=46
8D\L	5	(8ee\	3	.
8G\	3	4dd^\	.	.
8B\	2	.	.	.
8d\J)	1	8b\)	.	.
=47	=47	=47	=47	=47
(8D\L	5	(8.dd^\L	4	.
8F#X\	3	.	.	.
.	.	16cc\K	.	.
8A\	.	8b\	.	.
8d\J	.	8a\J	.	.
=48	=48	=48	=48	=48
8G\L	4	16b\LL	3	.
.	.	16a\JJ	.	.
8B\	.	8g^>/)	.	.
8d\J)	.	8r	.	.
8r	.	8dd\	1	.
!!LO:LB:g=original
*clefG2	*	*	*	*
=49	=49	=49	=49	=49
(8g\L	4	(16bb\LL	.	.
.	.	16aa\JJ	.	.
8b\	.	8gg^\)	.	.
8dd\J)	.	8r	.	.
8r	.	8dd\	.	.
=50	=50	=50	=50	=50
8fn/ 8g	.	(16bb^\LL	.	.
.	.	16aa\J	.	<
8r	.	8gg\J)	.	.
8f/ 8g	.	(16bb^\LL	.	.
.	.	16aa\J	.	.
8r	.	8gg\J)	.	[[
=51	=51	=51	=51	=51
[2G/ [2d [2f	.	(16bb\LL	3	.
.	.	16aa\	.	.
.	.	16gg\	.	.
.	.	16ff\JJ	4	.
.	.	16ee\LL	3	.
.	.	16dd\	.	.
.	.	16cc\	.	.
.	.	16b\JJ	3	.
=52	=52	=52	=52	=52
4G/] 4d] 4f]	.	16a/LL	2	.
.	.	16g/	1	>
.	.	16f#X/	2	.
.	.	16g/JJ	.	.
4r	.	16a/LL	2	.
.	.	16g/	1	.
.	.	16a/	2	.
.	.	16b/JJ	.	]
*clefF4	*	*	*	*
=53	=53	=53	=53	=53
*^	*	*	*	*
*	*	*above	*	*	*
4G/	[2C\	1	8cc\)	4	p
.	.	.	(4ee^\	5	.
4G#X/	.	2	.	.	.
.	.	.	8cc\	.	.
=54	=54	=54	=54	=54	=54
4A/	2C\_	1	16b\LL	.	.
.	.	.	16cc\	.	.
.	.	.	16dd\	.	.
.	.	.	16b\JJ	.	.
4B/	.	2	4g/)	.	.
=55	=55	=55	=55	=55	=55
4c/	4C\]	1	(8ee\	2	.
.	.	.	4gg^\)	4	.
4B-X/	4C#X\	.	.	.	.
.	.	.	(8gg\	3	.
*v	*v	*	*	*	*
!!LO:LB:g=original
=56	=56	=56	=56	=56
4D\ 4A	.	16ff#X\LL	.	.
.	.	16gg\	.	.
.	.	16aa\	.	.
.	.	16ff#\JJ	.	.
4G\ 4Bn	.	4gg\)	.	.
=57	=57	=57	=57	=57
*^	*	*	*	*
(4A/	2F\	.	(8aa\	5	.
.	.	.	4ffn^\	.	.
4B/)	.	.	.	.	.
.	.	.	8aa\	.	.
=58	=58	=58	=58	=58	=58
*	*	*below	*	*	*
(8c#X/L	4A\	3 5	16gg\LL	4	.
.	.	.	16ee\	2	.
8d/J	.	.	16ff\	3	.
.	.	.	16dd\JJ	2	.
4e/)	4G\	.	4cc\)	1	.
*v	*v	*	*	*	*
=59	=59	=59	=59	=59
4F\ 4f	.	(8dd\	5	.
.	.	4a^>/	.	.
4F#X\ 4e-X	.	.	.	.
.	.	8cc\	4	.
=60	=60	=60	=60	=60
4G\ 4d	.	16b\LL	3	.
.	.	16cc\	.	.
.	.	16dd\	.	.
.	.	16b\JJ	.	.
(8A\L	3	4g/)	.	.
8B\J	.	.	.	.
=61	=61	=61	=61	=61
4c\	.	(8e/ 8cc	3	mf
.	.	4ee^\	.	.
4A\	.	.	.	.
.	.	8e/ 8cc	.	.
=62	=62	=62	=62	=62
4G\)	4	16b\LL	2	.
.	.	16cc\	.	.
.	.	16dd\	.	.
.	.	16b\JJ	.	.
16A\LL	3	4g/)	.	.
16B\	.	.	.	.
16c\	.	.	.	.
16B\JJ	.	.	.	.
!!LO:LB:g=original
=63	=63	=63	=63	=63
4A\	3	(8cc\ 8ee	.	.
.	.	4ee^\) 4gg	.	.
4A#X\	2	.	.	.
.	.	8ee\ 8gg	.	.
=64	=64	=64	=64	=64
*	*	*^	*	*
4B\	1	(16ff#X/LL	4dd#X\	2 3	.
.	.	16gg/	.	.	.
.	.	16aa/	.	.	.
.	.	16ff#/JJ)	.	.	.
4e\	2	4ee\ 4gg\	4ryy	1 4	.
=65	=65	=65	=65	=65	=65
8f\	1	8aa/	4cc\	.	.
4d^\	2	(4ffn^/	.	.	.
.	.	.	8b\L	.	.
8G\	5	8aa/	8ff\J	.	.
*	*	*v	*v	*	*
=66	=66	=66	=66	=66
8c\L	1	16gg\LL	4	.
.	.	16ee\	2	.
8G#X\	3	16ff\	3	.
.	.	16dd\JJ	1	.
8A\	1	4cc\) 4ee	2 4	.
8Gn\J	2	.	.	.
=67	=67	=67	=67	=67
*	*	*^	*	*
!LO:TX:i:a:t=poco rit.	!	!	!	!	!
8F\L	3	8dd/	8a\L	3 5	.
8E\J 8c#X	4	4a^/	8g\J	2 3	.
4D\ 4d	5	.	4f\	.	.
.	.	8cc/	.	5	.
=68	=68	=68	=68	=68	=68
(4G\	.	(16b/LL	4f\	3	.
.	.	16cc/	.	.	.
.	.	16dd/	.	.	.
.	.	16b/JJ)	.	.	.
4C/)	.	4cc/	4e\	1 4	.
*	*	*v	*v	*	*
!!LO:PB:g=original
=69||	=69||	=69||	=69||	=69||
*k[b-]	*	*k[b-]	*	*
!LO:TX:i:a:t=marcato	!	!LO:TX:i:a:t=a tempo	!	!
(8c^\L	3	2r	.	f
16c\L	4	.	.	.
16d\JJ	.	.	.	.
8e\L	.	.	.	.
8c\J	2	.	.	.
=70	=70	=70	=70	=70
4.f^\	1	(16a\LL	2	.
.	.	16b-\	3	.
.	.	16cc\	1	.
.	.	16dd\JJ	.	.
.	.	16ee\LL	3	.
.	.	16ff\	4	.
8c\)	3	16gg\	.	.
.	.	16aa\JJ	.	.
=71	=71	=71	=71	=71
(8G^\L	5	8bb-\)	4	.
16G\L	4	8r	.	.
16A\JJ	.	.	.	.
8B-\L	.	4r	.	.
8G\J	.	.	.	.
=72	=72	=72	=72	=72
4.d^\	1	(16f/LL	1	.
.	.	16g/	.	.
.	.	16a/	.	.
.	.	16b-/JJ	4	.
.	.	16cc\LL	1	.
.	.	16dd\	.	.
8c\	.	16ee\	.	.
.	.	16ff\JJ	4	.
=73	=73	=73	=73	=73
8B-\)	3	8gg\)	.	.
(4B-^\	2	8r	.	.
.	.	4r	.	.
8G\	.	.	.	.
!!LO:LB:g=original
=74	=74	=74	=74	=74
8.F\L	5	(16aa\LL	4	.
.	.	16gg\	.	.
.	.	16ff\	.	.
16G\Jk	.	16ee\JJ	1	.
8A\L	.	16ff\LL	4	.
.	.	16ee\	.	.
8F\J	.	16dd\	.	.
.	.	16cc\JJ	.	.
=75	=75	=75	=75	=75
8G\)	4	16bn/LL	3	.
.	.	16a/	.	.
(4G^\	1	16g/	.	.
.	.	16a/JJ	.	.
.	.	16b/LL	.	.
.	.	16g/	.	.
8D\	4	16a/	.	.
.	.	16b/JJ	3	.
=76	=76	=76	=76	=76
8.E\L	3	16cc\LL	4	.
.	.	16dd\	5	.
.	.	16cc\	.	.
16D\Jk	4	16b-X\JJ	.	.
4C/)	5	16a/LL	2	.
.	.	16g/	1	.
.	.	16a/	.	.
.	.	16b-/JJ	.	.
=77	=77	=77	=77	=77
!	!	!LO:TX:i:b:t=marcato	!	!
8r	.	8cc^\L)	4	.
(8E\	4	(16cc\L	2	.
.	.	16dd\JJ	.	.
4G\	.	8ee\L	.	.
.	.	8cc\J	.	.
=78	=78	=78	=78	=78
8A^\L)	1	4.ff^\	5	.
(16A\L	3	.	.	.
16B-\JJ	.	.	.	.
8c\L	.	.	.	.
8A\J)	.	8cc\)	2	.
!!LO:LB:g=original
*clefG2	*	*	*	*
=79	=79	=79	=79	=79
8r	.	(8g^>/L	.	.
8c/	5	16g/L	.	.
.	.	16a/JJ	.	.
4d/	.	8b-/L	.	.
.	.	8g/J	.	.
=80	=80	=80	=80	=80
8e^>/L	.	4.dd^\	5	.
16e/L	.	.	.	.
16f/JJ	.	.	.	.
8g/L	.	.	.	.
8e/J	.	8cc\	4	.
=81	=81	=81	=81	=81
8d/L	4	8b-\)	3	.
8e/	.	(4b-^\	4	.
8f/	.	.	.	.
8e/J	3	8g/	2	.
=82	=82	=82	=82	=82
8d/L	1	8.f^>/L	1	.
8d-X/	3	.	.	.
.	.	16g/Jk	.	.
8c/	1	8a/L	.	.
8Bn/J	2	8f/J	.	.
=83	=83	=83	=83	=83
8B-X/L	3	8g/)	2	.
8G/	5	(4g^>/	3	.
8A/	.	.	.	.
8B-/J	3	8e/	1	.
*clefF4	*	*	*	*
=84	=84	=84	=84	=84
8A\L	4	16f/LL	2	.
.	.	16g/	.	>
8c\	1	16a/	4	.
.	.	16g/JJ	.	.
8A\	2	4f/)	.	.
8G\J	3	.	.	.
!!LO:LB:g=original
=85	=85	=85	=85	=85
8F\L	1	(16ff\LL	.	.
.	.	16gg\	.	>
8E\	2	16aa\	.	.
.	.	16gg\JJ	.	.
8D\	3	4ff\)	.	]]
8C\J	4	.	.	.
=86	=86	=86	=86	=86
4BBn/	5	(16fff\LL	3	.
.	.	16ggg\	.	.
.	.	16aaa\	5	.
.	.	16ggg\JJ	.	<
4r	.	16fff\LL	.	.
.	.	16eee\	.	.
.	.	16ddd\	1	.
.	.	16ccc\JJ	4	[[
=87	=87	=87	=87	=87
[2G\ [2d [2f	.	16bbn\LL	3	mf
.	.	16aa\	.	.
.	.	16gg\	1	.
.	.	16ff\JJ	4	.
.	.	16ee\LL	.	.
.	.	16dd\	.	.
.	.	16cc\	1	.
.	.	16bn\JJ	3	.
=88	=88	=88	=88	=88
4G\] 4d] 4f]	.	16a/LL	2	.
!	!	!LO:TX:i:b:t=poco rit.	!	!
.	.	16g/	1	.
.	.	16f#X/	2	.
.	.	16g/JJ	1	.
4r	.	16a/LL	2	.
.	.	16g/	1	.
.	.	16a/	2	.
.	.	16bn/JJ	3	.
!!LO:LB:g=original
=89||	=89||	=89||	=89||	=89||
*k[]	*	*k[]	*	*
4C\ 4G	5 1	8cc\)	.	mf
!	!	!LO:TX:i:b:t=a tempo	!	!
.	.	(4ee^\	5	.
4C\ 4G	.	.	.	.
.	.	8cc\	.	.
=90	=90	=90	=90	=90
4C/ 4F/ 4G/	.	16b\LL	.	.
.	.	16cc\	.	.
.	.	16dd\	.	.
.	.	16b\JJ	.	.
4C/ 4F/ 4G/	.	4g/)	.	.
=91	=91	=91	=91	=91
4C\ 4E 4G	.	(8ee\	2	.
.	.	4gg^\)	4	.
(8G\L	5	.	.	.
8c\J	2	(8gg\	3	.
=92	=92	=92	=92	=92
8d\L	1	16ff#X\LL	.	.
.	.	16gg\	.	.
8c\	.	16aa\	.	.
.	.	16ff#\JJ	.	.
8B\	.	4gg\)	.	.
8G\J)	.	.	.	.
=93	=93	=93	=93	=93
(4f\	1	(8aa\	5	.
.	.	4ffn^\	.	.
8A\L	5	.	.	.
8B\J	.	8aa\	.	.
=94	=94	=94	=94	=94
8c\L	.	16gg\LL	4	.
.	.	16ee\	2	.
8d\	.	16ff\	3	.
.	.	16dd\JJ	2	.
8e\	1	4cc\)	1	.
8c\J	4	.	.	.
!!LO:LB:g=original
=95	=95	=95	=95	=95
4f\	1	(8dd\	4	.
.	.	4a^>/	1	.
4d\	2	.	.	.
.	.	8cc\	3	.
=96	=96	=96	=96	=96
8g\L	1	16b\LL	2	.
.	.	16cc\	3	.
8G\J	.	16dd\	4	.
.	.	16b\JJ	2	.
4c\)	.	4cc\)	3	.
*clefG2	*	*	*	*
=97	=97	=97	=97	=97
(>8G/L	5	8r	.	.
8B/	.	8ff\L 8aa	.	.
8d/	.	8ff^\ 8aa	.	.
8g/J	.	8dd\J 8ff	.	.
=98	=98	=98	=98	=98
8g#X/L	2	(16ee\LL	3	.
.	.	16dd\	.	.
8a/	.	16cc\	.	.
.	.	16dd\JJ	.	.
8gn/	.	16ee\LL	.	.
.	.	16ff\	1	.
8e/J)	4	16gg\	.	.
.	.	16aa\JJ	.	.
=99	=99	=99	=99	=99
(>8d/L	2	16bb\LL	4	.
.	.	16ccc\	1	.
8G/	5	16ddd\	.	.
.	.	16eee\JJ)	.	.
8B/	3	8fff'\L	.	.
8f/J	1	8bb'\J	1	.
=100	=100	=100	=100	=100
8e/L	2	(16ccc\LL	2	.
.	.	16eee\JJ	4	.
8c/	.	4ggg^\)	5	.
8g/	.	.	.	.
8e/J)	.	8r	.	.
!!LO:PB:g=original
*clefF4	*	*	*	*
=101	=101	=101	=101	=101
(8BB\L	5	8r	.	.
8D#X\	3	8a/L 8cc	.	.
8F#X\	2	8a^/ 8cc	.	.
8B\J	1	8f#X/J 8a	.	.
=102	=102	=102	=102	=102
8c#X\L	2	(16g/LL	3	.
.	.	16f#X/	.	.
8cn\	1	16e/	.	.
.	.	16f#/JJ	.	.
8B\	2	16g/LL	.	.
.	.	16a'/	1	.
8G\J)	4	16b/	.	.
.	.	16cc#X/JJ	.	.
=103	=103	=103	=103	=103
(8F#X\L	2	16dd#X\LL	4	.
.	.	16ee\	.	.
8BB\	5	16ff#X\	.	.
.	.	16gg\JJ)	.	.
8D#X\	3	8aa'\L	4	.
8A\J	1	8dd#'\J	2	.
=104	=104	=104	=104	=104
8E\L	2	(16ee\LL	1	.
.	.	16gg\JJ	2	.
8C\	.	4bb^\)	4	.
8B\	.	.	.	.
8G\J)	.	8r	.	.
=105	=105	=105	=105	=105
(8f\L	1	(8.ddd^\L	4	mf
8A\	4	.	.	.
.	.	16ccc\K	.	.
8d\	1	8bb\	.	.
8F\J)	5	8aa\J)	.	.
!!LO:LB:g=original
=106	=106	=106	=106	=106
(8G\L	4	(8aa\	.	.
8c\	2	4gg^\	.	.
8e\	1	.	.	.
8g\J)	2	8ee\)	.	.
*clefG2	*	*	*	*
=107	=107	=107	=107	=107
(>8G#X/L	5	(8.gg^\L	4	.
8f/	.	.	.	.
.	.	16ff\K	.	.
8B/	.	8ee\	.	.
8g#X/J	.	8dd\J)	.	.
=108	=108	=108	=108	=108
8A/L	5	(8dd\	.	.
8e/	2	4cc^\)	.	.
8a/	1	.	.	.
8gn/J	.	(8cc#X\	2	.
=109	=109	=109	=109	=109
8f/)	.	16dd\LL	3	.
.	.	16cc#X\	.	.
8r	.	16dd\	1	.
.	.	16ee\JJ	2	.
4r	.	16ff\LL	3	.
.	.	16ee\	2	.
.	.	16ff\	3	.
.	.	16gg\JJ	1	.
=110	=110	=110	=110	=110
2r	.	16gg#X\LL	2	.
.	.	16aa\	3	.
.	.	16bb\	4	.
.	.	16aa\JJ	.	.
.	.	16ggn\LL	.	.
.	.	16ff\	1	.
.	.	16ee\	2	.
.	.	16dd\JJ)	1	.
!!LO:LB:g=original
=111	=111	=111	=111	=111
[2G/ [>2d [2f	.	(16ff#X\LL	3	.
.	.	16gg\	.	f
.	.	16aa\	5	.
.	.	16gg\JJ	.	.
.	.	16ffn\LL	3	.
.	.	16ee\	2	.
.	.	16dd\	1	.
.	.	16cc\JJ	4	.
=112	=112	=112	=112	=112
4G/] 4d] 4f]	.	16b/LL	3	<
.	.	16a/	.	.
.	.	16g/	1	.
.	.	16f#X/JJ	2	.
4r	.	16g/LL	3	.
.	.	16g#X/	4	.
.	.	16a/	1	.
.	.	16b/JJ	2	[
*clefF4	*	*	*	*
=113	=113	=113	=113	=113
(8C\L	5	8e/ 8cc	1 3	ff
8c\	.	4ee^\	5	.
8B\	.	.	.	.
8A\J	3	8cc\	3	.
=114	=114	=114	=114	=114
8G\L	1	16b\LL	2	.
.	.	16cc\	3	.
8F\	.	16dd\	4	.
.	.	16b\JJ	2	.
8E\	.	4g/)	1	.
8D\J	4	.	.	.
=115	=115	=115	=115	=115
8C\L	5	8e/ 8cc	.	.
8c\J	.	4ee^\	.	.
4B^\)	.	.	.	.
.	.	8cc\	.	.
!!LO:LB:g=original
=116	=116	=116	=116	=116
(4A^\	3	8e/ 8cc	.	.
.	.	4ee^\	.	.
4G#X^\	4	.	.	.
.	.	8cc\	.	.
=117	=117	=117	=117	=117
4A^\	1	8cc\ 8ee	1 2	.
.	.	4ee^\ 4gg	2 4	.
4Gn^\	2	.	.	.
.	.	8cc\ 8ee	.	.
=118	=118	=118	=118	=118
4F#X^\	3	8cc\ 8ee	1 2	.
.	.	4cc^\ 4ee 4aa	5	.
4G^\	2	.	.	.
.	.	8cc\ 8ee 8gg	4	.
=119	=119	=119	=119	=119
4A^\)	1	4cc^\ 4dd#X 4ff#X	1 2 3	.
4r	.	4r	.	.
=120	=120	=120	=120	=120
4G^\	.	4cc^\ 4ee 4gg	1 2 4	.
4r	.	4r	.	.
!!LO:LB:g=original
=121	=121	=121	=121	=121
4GG^/ 4G	.	4d^/ 4g 4b	1 3 5	.
4r	.	4r	.	.
=122	=122	=122	=122	=122
4CC^/ 4C	.	4e/ 4g 4cc	1 2 5	.
(8G\L	1	8g\L 8cc 8ee	1 3 5	.
8E\J	2	8cc\J 8ee 8gg	1 2 3	.
=123	=123	=123	=123	=123
4C/)	4	4ee\ 4gg 4ccc	1 2 5	.
(8GG/L	1	8c/L 8e	1 3	.
8EE/J	3	8c/J 8e 8g	3 5	.
=124	=124	=124	=124	=124
4CC/)	5	4e/ 4g 4cc	1 2 5	.
4r	.	4r	.	.
=125	=125	=125	=125	=125
4CC^/ 4C	.	4g^\ 4cc 4ee	1 3 5	.
4r	.	4r	.	.
=126	=126	=126	=126	=126
4CC^/ 4C	.	4e^>/ 4g 4cc	.	.
4r	.	4r	.	.
==	==	==	==	==
*-	*-	*-	*-	*-
!!!system-decoration: {(s1,s2)}
!!!RDF**kern: > = above
!!!RDF**kern: < = below
!!!RDF**dynam: > = dim.
!!!ENC: Berenika Jozajtis
!!!END: 2023-10-09
!!!ENC: Leszek Kubiak
!!!END: 2023-10-24
